dist/svg/object-based/world_128.svg

<?xml version="1.0" encoding="iso-8859-1"?>
<!-- Generator: Adobe Illustrator 20.0.0, SVG Export Plug-In . SVG Version: 6.00 Build 0)  -->
<svg version="1.1" id="Layer_1" xmlns="http://www.w3.org/2000/svg" xmlns:xlink="http://www.w3.org/1999/xlink" x="0px" y="0px"
	 viewBox="0 0 128 128" style="enable-background:new 0 0 128 128;" xml:space="preserve">
<g>
	<rect x="35.998" y="111.999" width="40" height="12"/>
	<path d="M26.299,75.698c8.199,8.199,18.949,12.299,29.699,12.299c10.128,0,20.254-3.643,28.25-10.92l0.035,0.035l2.828-2.828
		l-0.035-0.035c15.002-16.481,14.545-42.023-1.379-57.949C77.496,8.101,66.746,4.001,55.996,4.001
		c-10.127,0-20.252,3.642-28.248,10.92l-0.035-0.035l-2.828,2.828l0.036,0.035C9.918,34.231,10.375,59.774,26.299,75.698z
		 M55.996,8.001c10.152,0,19.695,3.951,26.873,11.127c14.341,14.344,14.799,37.392,1.376,52.29L30.579,17.752
		C37.566,11.45,46.516,8.001,55.996,8.001z M81.417,74.246c-6.987,6.302-15.937,9.751-25.419,9.751
		c-10.152,0-19.695-3.951-26.871-11.127c-14.342-14.342-14.799-37.39-1.376-52.29L81.417,74.246z"/>
	<path d="M97.01,4.987l-5.656,5.656c9.443,9.442,14.645,21.998,14.645,35.355s-5.201,25.913-14.646,35.355
		c-9.439,9.443-21.995,14.645-35.354,14.645s-25.915-5.201-35.354-14.645l-5.658,5.656c10.951,10.955,25.517,16.988,41.013,16.988
		s30.062-6.033,41.012-16.988c10.955-10.952,16.988-25.518,16.988-41.012S107.965,15.939,97.01,4.987z"/>
</g>
</svg>

<svg xmlns="http://www.w3.org/2000/svg" viewBox="0 0 128 128"><path d="M35.998 112h40v12h-40zM26.3 75.698c8.198 8.2 18.948 12.3 29.698 12.3 10.128 0 20.254-3.644 28.25-10.92l.035.034 2.828-2.828-.034-.035c15.002-16.482 14.545-42.024-1.38-57.95-8.2-8.2-18.95-12.3-29.7-12.3C45.87 4 35.744 7.644 27.748 14.92l-.035-.034-2.828 2.828.036.035C9.92 34.23 10.376 59.773 26.3 75.697zM55.995 8C66.148 8 75.69 11.953 82.87 19.13c14.34 14.344 14.798 37.392 1.375 52.29L30.58 17.752c6.986-6.302 15.936-9.75 25.416-9.75zm25.42 66.246C74.43 80.548 65.48 83.996 56 83.996c-10.152 0-19.695-3.95-26.87-11.126-14.343-14.342-14.8-37.39-1.377-52.29l53.667 53.666z"/><path d="M97.01 4.987l-5.656 5.656C100.797 20.085 106 32.64 106 45.998s-5.202 25.913-14.647 35.355C81.913 90.796 69.358 95.998 56 95.998s-25.916-5.2-35.355-14.645l-5.658 5.656C25.937 97.963 40.504 103.996 56 103.996s30.062-6.033 41.012-16.988C107.967 76.056 114 61.49 114 45.996s-6.035-30.058-16.99-41.01z"/></svg>
